X: 54
T: No_18_Dancing_Song_from_the_South_God_(a).krn
N: Derived from No_18_Dancing_Song_from_the_South_God_(a).krn
%%abc-version 2.0
%%abcx-abcm2ps-target-version 5.9.1 (29 Sep 2008)
%%abc-creator hum2abc beta
%%abcx-conversion-date 2019/03/15 08:35:44
%%humdrum-veritas 1884314154
%%humdrum-veritas-data 1675669500
%%linebreak <none>
%%barnumbers 0
L: 1/8
M: 2/4
K: A clef=bass
[K:clef=bass][M:2/4]z2z A,/A,/ | 
A,2F,3/E,/ | 
E,2F,E, | 
F,2E,3/C,/ | 
C,C,/ z/ E,E, | 
F,2E,3/E,/ | 
E, z E,E, | 
F,2E,3/C,/ | 
C,C, E,E, | 
F,2E,3/E,/ | 
E, z E,E, | 
F,2E,3/C,/ | 
C,C, E,E, | 
F,2E,3/E,/ | 
E, z z A,/A,/ ||  
[M:3/4]A,2F,3/E,/ E,A,/A,/ ||  
[M:2/4]A,2F,3/E,/ | 
E,2F,E, | 
F,2E,3/C,/ | 
C,C,/ z/ E,E, | 
F,2E,3/E,/ | 
E, z E,E, | 
F,2E,3/C,/ | 
C,C, E,E, | 
F,2E,3/E,/ | 
E, z E,E, | 
F,2E,3/C,/ | 
C,C, E,E, | 
F,2E,3/E,/ | 
E, zz2 |]  



